X:10555
T:Mazurka de Pcharde
R:mazurka
C:trad.
A:Limousin
O:France
Z:S. Piron
M:3/4
L:1/8
Q:1/4=180
K:C
fd|:e2dc dc|Bc de fd|e2 dc de|d2G2 fd|e2dc dc|Bc de fd|1e2 dcde|d2G2 fd:|2e2dc Bd|c2 GABG||
|:c2 Bcdc|Bcdefd|e2dc dc|B2 GABG|c2 Bc dc|Bc de fd|e2dc Bd|1c2 GA BG:|2c4 fd||
